img/svg/plane.svg

<?xml version="1.0" encoding="utf-8"?><!DOCTYPE svg PUBLIC "-//W3C//DTD SVG 1.1//EN" "http://www.w3.org/Graphics/SVG/1.1/DTD/svg11.dtd"><svg version="1.1" baseProfile="full" xmlns="http://www.w3.org/2000/svg" xmlns:xlink="http://www.w3.org/1999/xlink" xmlns:ev="http://www.w3.org/2001/xml-events"   height="19px"   width="24px" ><path fill="rgb( 255, 255, 255 )" d="M4.00999999999999,10.39 C4.06600000000003,10.398 4.12300000000005,10.403 4.18200000000002,10.403 C4.18200000000002,10.403 9.88400000000001,10.403 9.88400000000001,10.403 C9.88400000000001,10.403 11.676,10.403 11.676,10.403 C11.676,10.403 8.96900000000005,18.301 8.96900000000005,18.301 C8.96900000000005,18.301 11.104,18.116 11.104,18.116 C11.104,18.116 12.74,15.78 12.74,15.78 C12.74,15.78 14.373,13.447 14.373,13.447 C14.373,13.447 16.505,10.403 16.505,10.403 C16.505,10.403 19.169,10.403 19.169,10.403 C19.169,10.403 22.426,10.403 22.426,10.403 C23.16,10.403 23.756,9.739 23.756,8.919 C23.756,8.099 23.16,7.435 22.426,7.435 C22.426,7.435 19.169,7.435 19.169,7.435 C19.169,7.435 16.247,7.435 16.247,7.435 C16.247,7.435 14.369,4.849 14.369,4.849 C14.369,4.849 12.67,2.51000000000001 12.67,2.51000000000001 C12.67,2.51000000000001 11.105,0.357 11.105,0.357 C11.105,0.357 8.697,0.173 8.697,0.173 C8.697,0.173 11.497,7.43600000000001 11.497,7.43600000000001 C11.497,7.43600000000001 9.88400000000001,7.43600000000001 9.88400000000001,7.43600000000001 C9.88400000000001,7.43600000000001 4.18200000000002,7.43600000000001 4.18200000000002,7.43600000000001 C4.12900000000002,7.43600000000001 4.07799999999997,7.438 4.029,7.44499999999999 C4.029,7.44499999999999 2.17700000000002,4.842 2.17700000000002,4.842 C2.17700000000002,4.842 0.72400000000005,4.842 0.72400000000005,4.842 C0.72400000000005,4.842 1.91499999999996,8.169 1.91499999999996,8.169 C1.91499999999996,8.169 1.91499999999996,8.401 1.91499999999996,8.401 C1.91499999999996,8.401 1.91499999999996,9.166 1.91499999999996,9.166 C1.91499999999996,9.166 1.91499999999996,9.83499999999999 1.91499999999996,9.83499999999999 C1.91499999999996,9.83499999999999 0.79999999999995,13.239 0.79999999999995,13.239 C0.79999999999995,13.239 2.06899999999996,13.239 2.06899999999996,13.239 C2.06899999999996,13.239 4.00999999999999,10.39 4.00999999999999,10.39 Z "/></svg>

<svg baseProfile="full" xmlns="http://www.w3.org/2000/svg" height="19" width="24"><path fill="rgb( 255, 255, 255 )" d="M4.01 10.39l.172.013h7.494l-2.707 7.898 2.135-.185 1.636-2.336 1.633-2.333 2.132-3.044h5.921c.734 0 1.33-.664 1.33-1.484s-.596-1.484-1.33-1.484h-6.179l-1.878-2.586-1.699-2.339-1.565-2.153-2.408-.184 2.8 7.263h-7.3149999999999995l-.153.009-1.852-2.603h-1.453l1.191 3.327v1.666l-1.115 3.404h1.269l1.941-2.849z"/></svg>
